X: 1
T: Waverley
T: 8 x 48J 3C (RSCDS Book 15)
P: The Lawland Lads Think They Are Fine.        (3x)
C: arr. Terry Traub, 4-22-04
M: 6/8
L: 1/8
R: Jig
K: C
G|"C"CDC EFE|"C"GAG "G"e2 d|"C"cGE "F"FGA|"G"GcE "C"EDC|"C"CDC GAG |"C"cdc "F"g2 f|"C"ecG "F"ABc|"G"GAG "C"E<C||
"C"E2 F G2 c|"C"edc "G"dGF|"C"E2 e "D"edc|"G"B2 c dGF|"C"E2 c "F"cBA|"C"E2 f "F"e2 d|"C"ecG "F"ABc|"G"GAG "C"E<C |]
